(Gcode generated by LaserCAM 0.1.0)
(https://github.com/Clinery1/laser_cam)
(NOTE: 0,0 is the "top left" of the sheet)
(Sheet "New Sheet" width: 300; height: 300)
(Feed: 1000mm/min; Power: 10%)
(Generated on January 19, 2025 at 15:28)
G54 G17 G21 G90 G94
(Start model: sample)
G0 F1000 S0
M3
(- Start line 0)
G0 X198.172147 Y7.194832
G1 X200.172147 Y19.194832 S100
G1 X208.172147 Y23.194832 S100
G1 X208.172147 Y35.194832 S100
G1 X201.172147 Y39.194832 S100
G1 X201.172147 Y59.194832 S100
G1 X200.172147 Y60.194832 S100
G1 X200.172147 Y99.194832 S100
G1 X1.172147 Y99.194832 S100
G1 X1.172147 Y39.083732 S100
G1 X180.172147 Y19.194832 S100
G1 X182.172147 Y7.194832 S100
G1 X186.172147 Y1.194832 S100
G1 X194.172147 Y1.194832 S100
G1 X198.172147 Y7.194832 S100
G1 S0
(- Start line 1)
G0 X189.360990 Y86.698332
G1 X188.629227 Y87.071132 S100
G1 X188.048487 Y87.651932 S100
G1 X187.675627 Y88.383632 S100
G1 X187.547147 Y89.194832 S100
G1 X187.675627 Y90.006032 S100
G1 X188.048487 Y90.737732 S100
G1 X188.629227 Y91.318532 S100
G1 X189.360990 Y91.691332 S100
G1 X190.172147 Y91.819832 S100
G1 X190.983304 Y91.691332 S100
G1 X191.715067 Y91.318532 S100
G1 X192.295807 Y90.737732 S100
G1 X192.668667 Y90.006032 S100
G1 X192.797147 Y89.194832 S100
G1 X192.668667 Y88.383632 S100
G1 X192.295807 Y87.651932 S100
G1 X191.715067 Y87.071132 S100
G1 X190.983304 Y86.698332 S100
G1 X190.172147 Y86.569832 S100
G1 X189.360990 Y86.698332 S100
G1 S0
(- Start line 2)
G0 X9.685147 Y47.696922
G1 X9.246147 Y47.920632 S100
G1 X8.898147 Y48.269081 S100
G1 X8.674147 Y48.708138 S100
G1 X8.597147 Y49.194832 S100
G1 X8.674147 Y49.681526 S100
G1 X8.898147 Y50.120583 S100
G1 X9.246147 Y50.469032 S100
G1 X9.685147 Y50.692742 S100
G1 X10.172147 Y50.769832 S100
G1 X10.659147 Y50.692742 S100
G1 X11.098147 Y50.469032 S100
G1 X11.446147 Y50.120583 S100
G1 X11.670147 Y49.681526 S100
G1 X11.747147 Y49.194832 S100
G1 X11.670147 Y48.708138 S100
G1 X11.446147 Y48.269081 S100
G1 X11.098147 Y47.920632 S100
G1 X10.659147 Y47.696922 S100
G1 X10.172147 Y47.619832 S100
G1 X9.685147 Y47.696922 S100
G1 S0
(- Start line 3)
G0 X189.685453 Y47.696922
G1 X189.246396 Y47.920632 S100
G1 X188.897947 Y48.269081 S100
G1 X188.674237 Y48.708138 S100
G1 X188.597147 Y49.194832 S100
G1 X188.674237 Y49.681526 S100
G1 X188.897947 Y50.120583 S100
G1 X189.246396 Y50.469032 S100
G1 X189.685453 Y50.692742 S100
G1 X190.172147 Y50.769832 S100
G1 X190.658841 Y50.692742 S100
G1 X191.097898 Y50.469032 S100
G1 X191.446347 Y50.120583 S100
G1 X191.670057 Y49.681526 S100
G1 X191.747147 Y49.194832 S100
G1 X191.670057 Y48.708138 S100
G1 X191.446347 Y48.269081 S100
G1 X191.097898 Y47.920632 S100
G1 X190.658841 Y47.696922 S100
G1 X190.172147 Y47.619832 S100
G1 X189.685453 Y47.696922 S100
G1 S0
(- Start line 4)
G0 X99.685447 Y47.696922
G1 X99.246347 Y47.920632 S100
G1 X98.897947 Y48.269081 S100
G1 X98.674247 Y48.708138 S100
G1 X98.597147 Y49.194832 S100
G1 X98.674247 Y49.681526 S100
G1 X98.897947 Y50.120583 S100
G1 X99.246347 Y50.469032 S100
G1 X99.685447 Y50.692742 S100
G1 X100.172147 Y50.769832 S100
G1 X100.658847 Y50.692742 S100
G1 X101.097947 Y50.469032 S100
G1 X101.446347 Y50.120583 S100
G1 X101.670047 Y49.681526 S100
G1 X101.747147 Y49.194832 S100
G1 X101.670047 Y48.708138 S100
G1 X101.446347 Y48.269081 S100
G1 X101.097947 Y47.920632 S100
G1 X100.658847 Y47.696922 S100
G1 X100.172147 Y47.619832 S100
G1 X99.685447 Y47.696922 S100
G1 S0
(- Start line 5)
G0 X189.360990 Y26.698332
G1 X188.629227 Y27.071132 S100
G1 X188.048487 Y27.651932 S100
G1 X187.675627 Y28.383632 S100
G1 X187.547147 Y29.194832 S100
G1 X187.675627 Y30.006032 S100
G1 X188.048487 Y30.737732 S100
G1 X188.629227 Y31.318532 S100
G1 X189.360990 Y31.691332 S100
G1 X190.172147 Y31.819832 S100
G1 X190.983304 Y31.691332 S100
G1 X191.715067 Y31.318532 S100
G1 X192.295807 Y30.737732 S100
G1 X192.668667 Y30.006032 S100
G1 X192.797147 Y29.194832 S100
G1 X192.668667 Y28.383632 S100
G1 X192.295807 Y27.651932 S100
G1 X191.715067 Y27.071132 S100
G1 X190.983304 Y26.698332 S100
G1 X190.172147 Y26.569832 S100
G1 X189.360990 Y26.698332 S100
G1 S0
(- Start line 6)
G0 X190.005307 Y2.948132
G1 X189.838697 Y2.957932 S100
G1 X189.672620 Y2.974332 S100
G1 X189.507306 Y2.997132 S100
G1 X189.343015 Y3.026532 S100
G1 X189.180005 Y3.062232 S100
G1 X189.018537 Y3.104432 S100
G1 X188.858837 Y3.152832 S100
G1 X188.701157 Y3.207532 S100
G1 X188.545747 Y3.268332 S100
G1 X188.392847 Y3.335232 S100
G1 X188.242687 Y3.408032 S100
G1 X188.095517 Y3.486732 S100
G1 X187.951537 Y3.571132 S100
G1 X187.810987 Y3.661132 S100
G1 X187.674067 Y3.756532 S100
G1 X187.541017 Y3.857232 S100
G1 X187.411997 Y3.963132 S100
G1 X187.287247 Y4.073932 S100
G1 X187.166947 Y4.189632 S100
G1 X187.051287 Y4.309932 S100
G1 X186.940427 Y4.434732 S100
G1 X186.834557 Y4.563732 S100
G1 X186.733837 Y4.696732 S100
G1 X186.638407 Y4.833632 S100
G1 X186.548427 Y4.974232 S100
G1 X186.464047 Y5.118232 S100
G1 X186.385377 Y5.265332 S100
G1 X186.312547 Y5.415532 S100
G1 X186.245667 Y5.568432 S100
G1 X186.184847 Y5.723832 S100
G1 X186.130167 Y5.881532 S100
G1 X186.081727 Y6.041232 S100
G1 X186.039577 Y6.202732 S100
G1 X186.003817 Y6.365732 S100
G1 X185.974487 Y6.530032 S100
G1 X185.951607 Y6.695332 S100
G1 X185.935257 Y6.861332 S100
G1 X185.925427 Y7.028032 S100
G1 X185.922147 Y7.194832 S100
G1 X185.925427 Y7.361732 S100
G1 X185.935257 Y7.528332 S100
G1 X185.951607 Y7.694332 S100
G1 X185.974487 Y7.859732 S100
G1 X186.003817 Y8.023932 S100
G1 X186.039577 Y8.187032 S100
G1 X186.081727 Y8.348432 S100
G1 X186.130167 Y8.508132 S100
G1 X186.184847 Y8.665832 S100
G1 X186.245667 Y8.821232 S100
G1 X186.312547 Y8.974132 S100
G1 X186.385377 Y9.124332 S100
G1 X186.464047 Y9.271432 S100
G1 X186.548427 Y9.415432 S100
G1 X186.638407 Y9.556032 S100
G1 X186.733837 Y9.692932 S100
G1 X186.834557 Y9.825932 S100
G1 X186.940427 Y9.955032 S100
G1 X187.051287 Y10.079732 S100
G1 X187.166947 Y10.200032 S100
G1 X187.287247 Y10.315732 S100
G1 X187.411997 Y10.426532 S100
G1 X187.541017 Y10.532432 S100
G1 X187.674067 Y10.633132 S100
G1 X187.810987 Y10.728632 S100
G1 X187.951537 Y10.818532 S100
G1 X188.095517 Y10.902932 S100
G1 X188.242687 Y10.981632 S100
G1 X188.392847 Y11.054432 S100
G1 X188.545747 Y11.121332 S100
G1 X188.701157 Y11.182132 S100
G1 X188.858837 Y11.236832 S100
G1 X189.018537 Y11.285232 S100
G1 X189.180005 Y11.327432 S100
G1 X189.343015 Y11.363232 S100
G1 X189.507306 Y11.392532 S100
G1 X189.672620 Y11.415432 S100
G1 X189.838697 Y11.431732 S100
G1 X190.005307 Y11.441532 S100
G1 X190.172147 Y11.444832 S100
G1 X190.338987 Y11.441532 S100
G1 X190.505597 Y11.431732 S100
G1 X190.671674 Y11.415432 S100
G1 X190.836988 Y11.392532 S100
G1 X191.001279 Y11.363232 S100
G1 X191.164289 Y11.327432 S100
G1 X191.325757 Y11.285232 S100
G1 X191.485457 Y11.236832 S100
G1 X191.643137 Y11.182132 S100
G1 X191.798547 Y11.121332 S100
G1 X191.951447 Y11.054432 S100
G1 X192.101607 Y10.981632 S100
G1 X192.248777 Y10.902932 S100
G1 X192.392757 Y10.818532 S100
G1 X192.533307 Y10.728632 S100
G1 X192.670227 Y10.633132 S100
G1 X192.803277 Y10.532432 S100
G1 X192.932297 Y10.426532 S100
G1 X193.057047 Y10.315732 S100
G1 X193.177347 Y10.200032 S100
G1 X193.293007 Y10.079732 S100
G1 X193.403867 Y9.955032 S100
G1 X193.509737 Y9.825932 S100
G1 X193.610457 Y9.692932 S100
G1 X193.705887 Y9.556032 S100
G1 X193.795867 Y9.415432 S100
G1 X193.880247 Y9.271432 S100
G1 X193.958917 Y9.124332 S100
G1 X194.031747 Y8.974132 S100
G1 X194.098627 Y8.821232 S100
G1 X194.159447 Y8.665832 S100
G1 X194.214127 Y8.508132 S100
G1 X194.262567 Y8.348432 S100
G1 X194.304717 Y8.187032 S100
G1 X194.340477 Y8.023932 S100
G1 X194.369807 Y7.859732 S100
G1 X194.392687 Y7.694332 S100
G1 X194.409037 Y7.528332 S100
G1 X194.418867 Y7.361732 S100
G1 X194.422147 Y7.194832 S100
G1 X194.418867 Y7.028032 S100
G1 X194.409037 Y6.861332 S100
G1 X194.392687 Y6.695332 S100
G1 X194.369807 Y6.530032 S100
G1 X194.340477 Y6.365732 S100
G1 X194.304717 Y6.202732 S100
G1 X194.262567 Y6.041232 S100
G1 X194.214127 Y5.881532 S100
G1 X194.159447 Y5.723832 S100
G1 X194.098627 Y5.568432 S100
G1 X194.031747 Y5.415532 S100
G1 X193.958917 Y5.265332 S100
G1 X193.880247 Y5.118232 S100
G1 X193.795867 Y4.974232 S100
G1 X193.705887 Y4.833632 S100
G1 X193.610457 Y4.696732 S100
G1 X193.509737 Y4.563732 S100
G1 X193.403867 Y4.434732 S100
G1 X193.293007 Y4.309932 S100
G1 X193.177347 Y4.189632 S100
G1 X193.057047 Y4.073932 S100
G1 X192.932297 Y3.963132 S100
G1 X192.803277 Y3.857232 S100
G1 X192.670227 Y3.756532 S100
G1 X192.533307 Y3.661132 S100
G1 X192.392757 Y3.571132 S100
G1 X192.248777 Y3.486732 S100
G1 X192.101607 Y3.408032 S100
G1 X191.951447 Y3.335232 S100
G1 X191.798547 Y3.268332 S100
G1 X191.643137 Y3.207532 S100
G1 X191.485457 Y3.152832 S100
G1 X191.325757 Y3.104432 S100
G1 X191.164289 Y3.062232 S100
G1 X191.001279 Y3.026532 S100
G1 X190.836988 Y2.997132 S100
G1 X190.671674 Y2.974332 S100
G1 X190.505597 Y2.957932 S100
G1 X190.338987 Y2.948132 S100
G1 X190.172147 Y2.944832 S100
G1 X190.005307 Y2.948132 S100
G1 S0
M5
(End model: sample)
M30
